!!!OTL: DER MAI TRITT EIN MIT FREUDEN
!!!ARE: Europa, Mitteleuropa, Deutschland
!!!SCT: E0381
!!!YEM: Copyright 1995, estate of Helmut Schaffrath.
**kern
*ICvox
*Ivox
*M3/4
*k[f#c#]
*D:
{4A
=1
4.d
8e
8f#
8d
=2
4A
4F#}
{4A
=3
4.B
8c#
8d
8B
=4
2A}
{4F#
=5
4G
4B
8A
8G
=6
4F#
4A}
{4d
=7
8f#
8e
4d
4c#
=8
2d}
{8d
8e
=9
4f#
4d
4a
=10
4.e
8d}
{4c#
=11
4d
4B
4e
=12
4c#
4A
8r}
{8A
=13
4.B
8c#
8d
8B
=14
4A
4d}
{4f#
=15
8f#
8e
4d
4c#
=16
2d}
==
!!!AGN: Liebes - Lied, Jahreszeiten, Fruehling
!!!ONB: ESAC (Essen Associative Code) Database: ERK1
!!!AMT: simple triple
!!!AIN: vox
!!!EED: Helmut Schaffrath
!!!EEV: 1.0
*-
